X: 3285
T: THERE'S THREE GUID FELLOWS
%R: slip-jig
B: James Kerr "Merry Melodies" v.3 p.31 #285
Z: 2016 John Chambers <jc:trillian.mit.edu>
M: 9/8
L: 1/8
K: Am
c |\
A3 GAB cde | G2G GBc d2e |\
cBA GAB cde | edB e2^G A2 ::\
e |\
a2A c2e cBA | g2G B2d BAG |
cea gfe dcB | cBA e2^G A2 ::\
e |\
aea Ace cea | g^fg GBd Bdg |\
cea gfe dcB | cBA e2^G A2 :|

%%sep 1 1 500
%%sep 1 1 500

